X: 30454
T: Old Wheel Of Fortune, The
R: reel
M: 4/4
K: Dmajor
|G|FGEF D2EF|GEFD EDEG|FGEF D2Dg|fdec dBAG|
FGEF D2EF|GEFD EDEG|FGEF ~D3g|fdec dBAg|
fddc dfaf|eAAE Aceg|fddc dfaf|eABc dcdg|
fddc dfaf|eAAE Aceg|fdfa gfed|cABc d2d|

